X: 15
T: MILLICENT'S FAVORITE
%R: hornpipe
B: Jean White "100 Popular Hornpipes, Reels, Jigs and Country Dances", Boston 1880 p.7
F: http://www.loc.gov/resource/sm1880.09124.0#seq-1
Z: 2014 John Chambers <jc:trillian.mit.edu>
M: C|
L: 1/8
K: D
% - - - - - - - - - - - - - - - - - - - - - - - - - - - - -
a>g |\
f>ad>f A>dF>A | D>FA>d f2e>f |\
g>be>g c>eA>F | G>AB>G E2a>g |
f>ad>f A>dF>A | D>FA>d f2e>f |\
g>bg>e c>AB>c | d2f2 d2 :|
|: D2 |\
G>FG>A B>cd>e | f3e d>cd>B |\
A2f2 f>Af>A | G2e2 e>Ge>F |
G>FG>A B>cd>e | f3e d>cd>B |\
A>fe>d c>AB>c | d2f2 d2 :|
|: a>g |\
(3fgf (3efe (3ded (3cdc | (3BcB (3ABA G2b>a |\
(3gag (3fgf (3efe (3ded | (3cdc (3BcB A2a>g |
(3fgf (3efe (3ded (3cdc | (3BcB (3ABA (3GAG (3FGF |\
E>ge>d c>AB>c | [d2F2][f2A2] [d2F2] H:|
% - - - - - - - - - - - - - - - - - - - - - - - - - - - - -

%%sep 1 1 500
%%sep 1 1 500
